X:1
T:Valse romantique
T:Valse romantique
T:Claude Debussy
C:Claude Debussy
%%score { ( 1 4 5 ) | ( 2 3 ) }
L:1/8
Q:1/4=110
M:3/4
K:Ab
V:1 treble nm="Piano" snm="Pno."
V:4 treble 
V:5 treble 
V:2 bass 
V:3 bass 
V:1
"^Tempo di Valzer (Allegro moderato)" z6 | z6 | z6 | z6 | z!p! (.G !tenuto!G2 !tenuto!A2) | %5
 z (.B !tenuto!B2 !tenuto!c2) | z (.G.G.A.B.c | G6) | z (GAF C2- | CF!<(! c4- | (c)F CFcf)!<)! | %11
!pp![Q:1/4=115]"^poco più mosso" (3[=eg]cG z2 (3[=e'g']c'g | z2 (3[=eg]cG z2 | %13
 (3[=e'g']c'g z2 (3[=eg]cG |[Q:1/4=105]"^poco rit." z6 | %15
!p![Q:1/4=110]"^Tempo I" z (.G !tenuto!G2 !tenuto!A2) | z (.B !tenuto!B2 !tenuto!c2) | %17
 z (.G.G.A.B.c | !tenuto!G6) | z (GAF C2- | CF!<(! c4- | (c)F CFcf)!<)! | %22
[Q:1/4=120]"^poco più mosso" (3[=eg]cG z2 (3[=e'g']c'g | z2 (3[=eg]cG z2 | %24
 (3[=e'g']c'g z2 (3[=eg]cG |[Q:1/4=100]"^rit." z6 |!p! z2 z2[Q:1/4=120]"^tempo rubato" (!>!g2- | %27
!>(! gfed F2)!>)! | z2 z2 (g2- |!<(! gfed F2)!<)! |!mf! z2 (!tenuto![ceg]2 !tenuto![cea]2) | %31
 z2 (!tenuto![ceg]2 !tenuto![cea]2) |"_dim." z2 ([Ac]2 [FA]2- | [FA]2 [=DF]2 [B,D]2) | %34
!p! z2 z2 (g2- | gfed F2) |"_cresc." z2 z2 (g2- | gfed F2) |!mf! z2 (g2 a2- | a2 e2 c2) | %40
 z2 (=e2 f2- |!>(! f2 c2 A2)!>)! |[K:bass]!p! C6[K:treble] |[K:bass] (C2 E2 C2 | C6)[K:treble] | %45
[K:bass] (C2 E2 C2 |[K:treble] [CG]6) | (=D2 E2 D2 | [CG]6) | (=D2 E2 D2) |!p! [CG]6 | %51
"_dim." (=dg g'c') (=d'g' |!8va(! g''c'')!8va)! (=dg g'c') | (=DG gc) z2 |!p! [=B,G]6 | %55
 (=dg g'=b) (=d'g' |!8va(! g''=b')!8va)! (=dg g'=b) | (=DG g=B) z2 | %58
!pp![Q:1/4=110]"^Tempo I" z (.g !tenuto!g2 !tenuto!a2) | z (.b !tenuto!b2 !tenuto!c'2) | %60
 z (g"_legato" gabc' | g6) | z (g af c2- | cf c'4- | c'[Q:1/4=100]"^rit."fcfc'f') | %65
[Q:1/4=110]"^a tempo"!p! (3[f'a']d'a z2 (3[fa]dA | z2 (3[f'a']d'a z2 | x2 g2 a2 | (g2 f2 [eg][fa] | %69
 !tenuto![gb]2) (3[fa]dA z2 | (3[f'a']d'a z2 (3(f-dA | [fa]2 (g2) a2 | g2 f2!mf! ef) | %73
!p! [Ac]4 [FA][GB] | c2 f2 a2 |!p! z2 ([Ac]2!<(! [FA][GB] | c2 f2 a2)!<)! | %77
!f! z2"_marcato" (!>![cc']2 [Bb]2) | !>![Ada]2 ([Gg][Aa] !>![Ff]2- | [Ff][Gg] [Ee]2) [B,GB][Dd] | %80
!mf! d2 c3 A |!<(! [=E=e]6!<)! | .[faf']2 (!>![cfc']3 [Aa]) | ([B=eb][cc'] [Gg]2) ([Bgb][cc'] | %84
 ([dd']4) [ff']2- |!>(! f'2 bc' d'2)!>)! |!mf! z2"_dim." (f2 c'2) | z2!>(! ([Fc]2 [EG]2)!>)! | %88
 z2!p! (BAFA) | z2 (BABc) | z2!<(! (BAFA | BAce!<)!ac') |z2(bafa) |z2(babc') |z2(ba!<(!fa | %95
 bac'!8va(!e'a'c''!<)! |!pp! [_c''e'']2)!8va)! z2 z2 | z (.a !tenuto!a2 !tenuto!b2) | %98
"_un poco legato" z (f f_gab) | z2!8va(! ([b'd'']3 [=g'b'] | %100
 [a'_c''][b'_d''] [f'a']2 [a'c''][b'd''] | [_c''e'']2)[K:bass]!8va)! z2 z2 | %102
 z (.A, !tenuto!A,2 !tenuto!B,2) | z (.F,.F,._G,.A,.B, | !tenuto!F,6- | F,6) | %106
[K:treble] z!pp! (.G !tenuto!G2 !tenuto!A2) | z (.B !tenuto!B2 !tenuto!c2) | z .G.G.A.B.c | %109
 z2 ([c'e']3 [=ac'] | [bd'][c'_e'] [gb]2 [bd'][c'e'] | [d'f']2) z2 z2 | %112
 z (.B !tenuto!B2 !tenuto!c2) | z (.G.G.A.B.c | G6) | z (GAF C2- | CF c4- | %117
!>(! (cF[Q:1/4=100]"^rit."CFc!>)!f)) || %118
[K:F][Q:1/4=110]"^a tempo"!p! (3[eg]cG z2!8va(! (3[e''g'']c''g'!8va)! | z2 (3[e'g']c'g z2 | %120
 g2 f2 g2 | f2 e2!<(! ([df][eg]!<)! | [fa]2)!p! (3[eg]cG z2 | %123
!8va(! (3[e''g'']c''g'!8va)! z2 (3[e'g']c'g | z2!<(! (f2 g2 | f2 e2 [df][eg])!<)! | %126
!p!!p! (3(afA"_cresc. poco a poco   al mf" (3afA (3afA) | (3(^gf^G (3gfG (3gfG) | %128
 (3(afA (3afB (3afc) | (3(c'fd (3c'fd (3c'ge) |!mf!"_cresc. sempre al ff" (3(c'ac (3c'ac (3c'ac) | %131
 (3(=b^g=B (3bgB (3bgB) | (3(_bfB (3c'gc (3d'bd) | (3(bfB (3c'gc (3d'bd) | %134
 (3(d'bd) (3(bfB) (3(d'bd) | (3(d'bd) (3(bfB) (3(d'bd) | %136
!ff![Q:1/4=100]"^ritenuto e molto marcato" z2 ([af'a']2 [Geg]2) | %137
"_cresc." ([Fdf]2 [Ee][Ff] !>![Dd]2- | [Dd][Ee] [Cc]2) ([G,EG][B,B] | %139
 [DFBd]2 [Ee][Ff] !>![GBdg]2- | [GBdg]2 [Ff]2) !>![GBdg]2 | [DFBd]2 ([Dd][Ee] !>![GBdg]2- | %142
 [GBdg]2 [Ff]2) !>![GBdg]2 | z!<(! !tenuto!.G !>!G2 !>!A2 | z !tenuto!.B !>!B2 !>!c2!<)! | %145
!ff![Q:1/4=110]"^a tempo" z !tenuto!.G !>!.G.A.B.c | !>!.G.A.B.c !tenuto!d!tenuto!e | %147
 !>![Gcg]4 !>![Fcf]2- | [Fcf]2!ff! !>![fc'f']4 |[K:bass]!f! !>!F,6- | F,2 z2 z2 |] %151
V:2
!p!!ped! !tenuto!B,,2 .[F,B,D]2 .[=E,B,D]2!ped-up! | %1
!ped! !tenuto!B,,2"_simile" .[F,B,D]2 .[=E,B,D]2!ped-up! | %2
!ped! !tenuto!B,,2 .[F,B,D]2 .[=E,B,D]2!ped-up! |"^simile"!ped! B,,2 [F,B,D]2 [=E,B,D]2!ped-up! | %4
!ped! B,,2 [F,B,D]2 [=E,B,D]2!ped-up! |!ped! B,,2 [F,B,D]2 [=E,B,D]2!ped-up! | %6
!ped! B,,2 [F,B,D]2 [=E,B,D]2!ped-up! |!ped! B,,2 [F,B,D]2 [=E,B,D]2!ped-up! | %8
"_sostenuto"!ped! z2 [F,C]2 z2!ped-up! |!ped! z2 [C,A,]2 z2!ped-up! |!ped! z2 [A,,F,]2 z2!ped-up! | %11
 z2 (3[C=E]G,=E, z2 |[K:treble] (3[c=e]G=E z2[K:bass] (3[C=E]G,=E, | z2[K:treble] (3[c=e]G=E z2 | %14
[K:bass] (3[C=E]G,=E, C2 =B,2 |!ped! z2 [DF]2 z2!ped-up! |!ped! z2 [B,DF]2 z2!ped-up! | %17
!ped! z2 [B,DF]2 z2!ped-up! |"_simile"!ped! z2 [G,C=E]2 z2!ped-up! |!ped! z2 [F,C]2 z2!ped-up! | %20
!ped! z2 [C,A,]2 z2!ped-up! | z2 [A,,F,]2 z2 |!ped! z2 (3[C=E]G,=E, z2 | %23
[K:treble] (3[c=e]G=E z2[K:bass] (3[CE]G,=E, | z2[K:treble] (3[c=e]G=E z2 | %25
[K:bass] (3[C=E]G,=E, C,2!ped-up! =B,,2 |"_col pedale"!ped! [_B,,,_B,,]2 ([F,B,DF]2 [G,B,DG]2 | %27
 [A,B,DA]2 [G,B,DG]2 [A,B,DA]2) | [B,,,B,,]2 ([G,B,DG]2 [A,B,DA]2 | %29
[K:treble]{/E,} [B,DEB]2 [A,DEA]2 [B,DEB]2)!ped-up! | %30
[K:bass]!ped! [A,,E,]2 (!tenuto![CEB]2 !tenuto![CEA]2)!ped-up! | %31
!ped! [F,,C,]2 (!tenuto![A,CG]2 !tenuto![A,CF]2)!ped-up! |!ped! z2 (E2 =D2 | %33
 C2!ped-up!!ped! B,2 A,2)!ped-up! |!ped! [E,,,E,,]2[K:treble] ([F,B,_DF]2 [G,B,DG]2!ped-up! | %35
!ped! [A,DA]2 [G,DG]2!ped-up!!ped! [A,DA]2 |"_col pedale" [=A,D=A]2 [_A,D_A]2 [=A,D=A]2 | %37
 [B,DB]2 [=A,D=A]2 [B,DB]2)!ped-up! |[K:bass]!ped! [A,,,A,,]6[K:treble]!ped-up! | %39
!ped! [_B,_B]2 [A,A]2 [G,G]2!ped-up! |!ped! [F,F]6[K:treble]!ped-up! | %41
[K:bass]!ped! [G,G]2 [F,F]2 [_E,_E]2!ped-up! |!ped! [B,,,F,,]6!ped-up! |!ped! (C,,4 _D,,2!ped-up! | %44
!ped! =D,,6)!ped-up! |!ped! (E,,2 F,,2!ped-up!!ped! G,,2!ped-up! |!ped! A,,6)!ped-up! | %47
!ped! (B,,6!ped-up! |!ped! A,,6)!ped-up! |!ped! (B,,4!ped-up!!ped! A,,2)!ped-up! | %50
"_tenuto sempre"!ped! [G,,=D,]6- | [G,,D,]6- | [G,,D,]6- | [G,,D,-]4 ((=D,2 | [G,,=D,]6-)) | %55
 [G,,D,]6- | [G,,D,]6- | [G,,D,]6[K:treble] |!ped! z2 (3FB_d (3=EBd!ped-up! | %59
!ped! z2 (3(_EBd (3=EBd)!ped-up! |!ped! z2"_simile" (3(FBd (3=EBd)!ped-up! | %61
!ped! z2 (3(_EBd (3=EBd)!ped-up! | z2 (3CFA z2 |[K:bass] z2 (3A,CA z2 | z2 (3A,CF z2 | %65
!ped! z2[K:treble] (3[df]AF z2 |[K:bass] (3[DF]A,F, z2[K:treble] (3[df]AF!ped-up! | %67
 z2[K:bass]!ped! (E2 F2 | E2!ped-up!!ped! D2) A,,2-!ped-up! |!ped! z2 z2 (3[DF]A,F, | %70
 z2[K:treble] (3[df]AF z2 |[K:bass] (3[DF]!ped-up!A,F,!ped! (E2 F2 | %72
 E2!ped-up!!ped! D2 A,2)!ped-up! |!ped! (3(F,,C,F,, (3C,F,,C,!ped-up!!ped! (3F,,C,F,,)!ped-up! | %74
 (B,,,B,, F,A,B,C) | G2!ped! F2 =E2!ped-up! |!ped! _E2!ped-up!!ped! =D2 z2!ped-up! | %77
!ped! [E,,,E,,]2 [D=EG]2 [E,,,E,,]2!ped-up! |!ped! [F,,,F,,]2 [A,D]2 [F,,,F,,]2!ped-up! | %79
!ped! [G,,,G,,]2!ped-up! [E,B,D]2!ped! [E,,,E,,]2!ped-up! |!ped! z2 (C3 A, | %81
 B,!ped-up!!ped!C G,2 B,2)!ped-up! |!ped! [D,,D,]2 !>![A,DF]2 [D,,D,]2!ped-up! | %83
!ped! !>![G,D=E]2 [D,,D,]2 [C,,C,]2!ped-up! |!ped! ([B,,,B,,]2 [F,D]2 [B,F]2 | %85
[K:treble] [DB]2 [Fd]2 [Bf]2) | z2!ped-up! (A2!ped! G2) |[K:bass] E,6 | %88
 z2!ped-up!!ped! (E,2 =D,2)!ped-up! | z2!ped! (E,2 =E,2)!ped-up! | z2!ped! (_E,2 =D,2!ped-up! | %91
!ped! E,2 A,2 C2) |[K:treble] z2!ped-up! A4 | z2!ped! A4!ped-up! | z2!ped! A4!ped-up! | %95
!ped! [EA]2 A2 c2!ped-up! |!ped! [EA_c]2 A,2 [EAc]2!ped-up! | A,2 [EA_c]2!ped! A,2!ped-up! | %98
!ped! [EA_c]2 A,2 [EAc]2!ped-up! | A,2 [EA_c]2 A,2 |!ped! [=DF_c]2 A,2 [DFc]2!ped-up! | %101
!ped! A,2!ped-up! [EA_c]2!ped! _C2!ped-up! |!ped! [EA_c]2 _C2 [EAc]2!ped-up! | %103
!ped! _C2 [EA_c]2 C2!ped-up! |!ped! [EA_c]2 _C2 [EAc]2!ped-up! | _C2 [CEA]2 A,2 | %106
[K:bass]"_tenuto"!ped! z2 [B,DF]2 F,2 | [B,DF]2 F,2 [B,DF]2 | F,2 [B,DF]2 F,2!ped-up! | %109
 F,2 [B,DF]2 F,2 |!ped! [B,D=E]2 F,2 [B,DE]2!ped-up! |!ped! z2 [B,DF]2 F,2 | [B,DF]2 F,2 [B,DF]2 | %113
 F,2 [B,DF]2 F,2!ped-up! |!ped! [B,D=E]2 C,2!ped-up! B,,2 |!ped! z2 [F,C]2 z2!ped-up! | %116
!ped! z2 [C,A,]2 z2!ped-up! |!ped! z2 [A,,F,]2 z2!ped-up! ||[K:F]!ped! z2 (3[CE]G,E, z2 | %119
[K:treble] (3[c'e']ge!ped-up! z2 (3[ce]GE |[K:bass] z2!ped! (D2!ped-up!!ped! E2!ped-up! | %121
!ped! D2!ped-up!!ped! C2) [C,,C,]2!ped-up! |!ped! z2 z2 (3[CE]G,E,!ped-up! | %123
 z2[K:treble] (3[c'e']ge z2 | (3[ce]GE!ped! (D2 E2!ped-up! | D2!ped! C2 B2)!ped-up! | %126
!ped! (!tenuto!F2 !tenuto!E3 .C)!ped-up! |!ped! .D.E .=B,2!ped-up!!ped! .D.E!ped-up! | %128
!ped! .F2!ped-up!!ped! .=G2!ped-up!!ped! .A2!ped-up! |!ped! [CFG_B]4[K:bass] z2!ped-up! | %130
[K:treble]!ped! A6!ped-up! |!ped! ^G6!ped-up!!ped!!ped-up! | %132
!ped! [DF]2!ped-up!!ped! [CE=G]2!ped-up!!ped! [_B,DF_B]2!ped-up! | %133
!ped! [DF]2!ped-up!!ped! [CEG]2!ped-up!!ped! ([B,DFB]2- | [B,DFB]2 F2!ped-up! D2) | %135
!ped! (B2 F2 D2)!ped-up! |[K:bass]!ped! [A,,,A,,]2 (F2 E2)!ped-up! | %137
!ped! [D,,,D,,]2 [F,A,]2 [D,,,D,,]2!ped-up! | %138
!ped! [E,,,E,,]2 [C,G,B,]2!ped-up!!ped! [C,,C,]2!ped-up! |!ped! [B,,,B,,]4 !>![F,B,DF]2- | %140
 [F,B,DF]2 z2!ped-up!!sfz!!ped! [D,F,B,D]2!ped-up! | %141
!ped! [B,,,B,,]4!ped-up!!ped! !>![F,B,DF]2-!ped-up! | [F,B,DF]2 z2!sfz!!ped! !>![B,D]2!ped-up! | %143
!ped! [_DFG]2 z2 z2!ped-up! | z6 |!ped! [B,=DF]2 !>!C,2 [B,DF]2!ped-up! | %146
 !>!C,2!ped! [G,B,DE]2 !>!C,2!ped-up! | !>![F,,,F,,]4 !>![C,A,C]2- | %148
 [C,A,C]2[K:treble]!ped! !>![A,CFA]4 |[K:bass] !>![F,,,F,,]6- | [F,,,F,,]2!ped-up! z2 z2 |] %151
V:3
 x6 | x6 | x6 | x6 | x6 | x6 | x6 | x6 | (A,,4 G,,2 | F,,4 _E,,2 | =D,,4 _D,,2 | [C,,G,,]6) | %12
[K:treble] x4[K:bass] x2 | x2[K:treble] x4 |[K:bass] x6 | (_B,4 A,2 | G,4 F,2 | E,4 D,2 | %18
 C,4 B,,2) | (A,,4 G,,2 | F,,4 _E,,2 | =D,,4 _D,,2 | [C,,G,,]6) |[K:treble] x4[K:bass] x2 | %24
 x2[K:treble] x4 |[K:bass] x6 | x6 | x6 | x6 |[K:treble] x6 |[K:bass] x6 | x6 | B,,6 | z4 x2 | %34
 x2[K:treble] x4 | x6 | x6 | x6 |[K:bass] x4[K:treble] [CEc]2 | E6 | x4[K:treble] [A,A]2 | %41
[K:bass] C6 | x6 | B,,6- | B,,6 | x6 | x6 | x6 | x6 | x6 | x6 | x6 | x6 | x6 | x6 | x6 | x6 | %57
 x4[K:treble] =D=B, | _B,6 | B,6 | B,6 | B,6 | (A,4 G,2 |[K:bass] !tenuto!F,4 E,2 | =D,4 A,,2) | %65
 [_D,,A,,]6[K:treble] |[K:bass] x4[K:treble] x2 | z2[K:bass] A,4- | A,4 A,,2 | [D,,A,,]6 | %70
 x2[K:treble] x4 |[K:bass] x6 | x6 | x6 | x6 | (3GCA, (3FCA, (3=ECA, | %76
 (3EA,F, (3=DA,F, (3B,,F,B,, | x6 | x6 | x6 | [D,,,D,,]6 | x6 | x6 | x6 | x6 |[K:treble] x6 | B,6 | %87
[K:bass] x6 | A,,6 | A,,6 | A,,6 | x6 |[K:treble] (E4 =D2) | (E4 =E2) | (_E4 =D2) | E2 x4 | x6 | %97
 x6 | x6 | x6 | x6 | x6 | x6 | x6 | x6 | x6 |[K:bass] [G,,,G,,]6 | x6 | x6 | x6 | x6 | [G,,,G,,]6 | %112
 x6 | x6 | x6 | (A,,4 G,,2 | F,,4 E,,2 | =D,,4 !courtesy!=D,,2) ||[K:F] [B,,,B,,]6 |[K:treble] x6 | %120
[K:bass] x6 | x6 | [B,,,B,,]6 | x2[K:treble] x4 | x6 | x6 | x6 | x6 | x6 | %129
 z2[K:bass] !tenuto!G,2 !tenuto!C,2 |[K:treble] (F2 E3 C) | (DE =B,2 DE) | x6 | x6 | x6 | B,6 | %136
[K:bass] x2 [G,A,^C]4 | x6 | x6 | x6 | x6 | x6 | x6 | x6 | x6 | x6 | x6 | x6 | x2[K:treble] x4 | %149
[K:bass] x6 | x6 |] %151
V:4
 x6 | x6 | x6 | x6 | x6 | x6 | x6 | x6 | x6 | x6 | x6 | x6 | x6 | x6 | x6 | x6 | x6 | x6 | x6 | %19
 x6 | x6 | x6 | x6 | x6 | x6 | x6 | x6 | x6 | x6 | x6 | x6 | x6 | x6 | x6 | x6 | x6 | x6 | x6 | %38
 [=B,E=B]4 x2 | x6 | [G,CG]4 x2 | x6 |[K:bass] [=D,A,]6[K:treble] |[K:bass] A,6 | %44
 [F,A,]6[K:treble] |[K:bass] [E,A,]6 |[K:treble] z2 (Ac ac') | [A,C]6 | %48
 z2"_l. h."!<(! (Ac"^r. h." ac') | [A,C]6!<)! | z2 (=DG gc) | x6 |!8va(! x2!8va)! x4 | x6 | %54
 z2"_l. h." (=DG"^r. h." g=d) | x6 |!8va(! x2!8va)! x4 | x6 | x6 | x6 | x6 | x6 | x6 | x6 | x6 | %65
 x6 | x6 | (3([fa]dA) (3eBG (3fdA | (3eBG (3dAF z2 | x6 | x4 a2- | z2 (3e"_cresc."BG (3fdA | %72
 (3eBG (3dA-F- [FA]2 | F2!<(! =E2 _E2 | (3cA=D (3fcA (3af!<)!c | x6 | [Ac]6 | z2 [eg]4 | x2 d4 | %79
 [Bd]4 x2 | ([Ff]6 | Bc G2 Bc) | x6 | x6 | b2 a2 f2 | f4 b2 | z2 d4 | z2 D4 | z2 (C2 _C2) | %89
 z2 (=C2 [_DG]2) | z2 (C2 _C2) | (=C2 E2) z2 | z2 ([c_g]2 _c2) | z2 ([=c_g]2 [_d=g]2) | %94
 z2 ([c_g]2 _c2 | [=c_g]2) z2!8va(! z2 | z!8va)! (.f !tenuto!f2 !tenuto!_g2) | x6 | x6 | %99
 !tenuto!f2!8va(! z2 z2 | z6 | z[K:bass] (.F!8va)! !tenuto!F,2 !tenuto!_G,2) | x6 | x6 | x6 | x6 | %106
[K:treble] x6 | x6 | x6 | .G2 z2 z2 | x6 | z (.G !tenuto!G2 !tenuto!A2) | x6 | x6 | x6 | x6 | x6 | %117
 x6 ||[K:F] x4!8va(! x2!8va)! | x6 | (3ecG (3dBF (3ecG | (3dBF (3cGE x2 | x6 |!8va(! x2!8va)! x4 | %124
 z2 (3dBF (3ecG | (3dBF (3cGE z2 | x6 | x6 | x6 | x6 | x6 | x6 | x6 | x6 | x6 | x6 | x6 | x2 A4 | %138
 [GB]4 x2 | x6 | x6 | x6 | x6 | [B_db]2 x4 | x6 | x6 | x6 | x6 | x6 |[K:bass] x6 | x6 |] %151
V:5
 x6 | x6 | x6 | x6 | x6 | x6 | x6 | x6 | x6 | x6 | x6 | x6 | x6 | x6 | x6 | x6 | x6 | x6 | x6 | %19
 x6 | x6 | x6 | x6 | x6 | x6 | x6 | x6 | x6 | x6 | x6 | x6 | x6 | x6 | x6 | x6 | x6 | x6 | x6 | %38
 x6 | x6 | x6 | x6 |[K:bass] z2[K:treble]"_l. h." (Ac"^r. h.""_cresc. poco a poco" ac') | %43
[K:bass] E,4 =E,2 | z2[K:treble]"_l. h." (Ac"^r. h." ac') |[K:bass] x6 |[K:treble] x6 | x6 | x6 | %49
 x6 | x6 | x6 |!8va(! x2!8va)! x4 | x6 | x6 | x6 |!8va(! x2!8va)! x4 | x6 | x6 | x6 | x6 | x6 | %62
 x6 | x6 | x6 | x6 | x6 | x6 | x6 | x6 | x6 | x6 | x8/3 (3:2:1A2 x2 | x6 | x6 | x6 | x6 | x6 | x6 | %79
 x6 | x6 | x6 | x6 | x6 | x6 | x6 | x6 | x6 | x6 | x6 | x6 | x6 | x6 | x6 | x6 | x3!8va(! x3 | %96
 x!8va)! x5 | x6 | x6 | x2!8va(! x4 | x6 | x[K:bass] x!8va)! x4 | x6 | x6 | x6 | x6 | %106
[K:treble] x6 | x6 | x6 | x6 | x6 | x6 | x6 | x6 | x6 | x6 | x6 | x6 ||[K:F] x4!8va(! x2!8va)! | %119
 x6 | x6 | x4 z2 | x6 |!8va(! x2!8va)! x4 | x6 | x6 | x6 | x6 | x6 | x6 | x6 | x6 | x6 | x6 | x6 | %135
 x6 | x6 | x6 | x6 | x6 | x6 | x6 | x6 | x6 | x6 | x6 | x6 | x6 | x6 |[K:bass] x6 | x6 |] %151

